Sources/FrostedUI/Resources/Icons.xcassets/cameraFilled12.imageset/camera-filled-12.svg

<svg width="12" height="12" viewBox="0 0 12 12" fill="none" xmlns="http://www.w3.org/2000/svg" data-fui-icon="true">
  <path
    d="M7.19531 0.375C8.11808 0.375114 8.96896 0.873643 9.41992 1.67871L9.60254 2.00488C9.68732 2.15618 9.84707 2.24997 10.0205 2.25C11.1137 2.25 12 3.1363 12 4.22949V9.0752C11.9999 10.4834 10.8584 11.6249 9.4502 11.625H2.5498C1.22964 11.6249 0.143351 10.6216 0.0126953 9.33594L0 9.0752V4.22949C0 3.13628 0.886285 2.25 1.97949 2.25C2.15294 2.24998 2.31266 2.15618 2.39746 2.00488L2.58008 1.67871C3.03103 0.873646 3.88193 0.375127 4.80469 0.375H7.19531ZM6 3.5625C4.48122 3.5625 3.25 4.79372 3.25 6.3125C3.25 7.83128 4.48122 9.0625 6 9.0625C7.51878 9.0625 8.75 7.83128 8.75 6.3125C8.75 4.79372 7.51878 3.5625 6 3.5625ZM6 5.0625C6.69036 5.0625 7.25 5.62214 7.25 6.3125C7.25 7.00286 6.69036 7.5625 6 7.5625C5.30964 7.5625 4.75 7.00286 4.75 6.3125C4.75 5.62214 5.30964 5.0625 6 5.0625Z"
    fill="currentColor"
  />
</svg>

<svg xmlns="http://www.w3.org/2000/svg" width="12" height="12" fill="none" data-fui-icon="true" viewBox="0 0 12 12"><path fill="currentColor" d="M7.195.375A2.55 2.55 0 0 1 9.42 1.679l.183.326a.48.48 0 0 0 .418.245A1.98 1.98 0 0 1 12 4.23v4.845a2.55 2.55 0 0 1-2.55 2.55h-6.9a2.55 2.55 0 0 1-2.537-2.29L0 9.076V4.23A1.98 1.98 0 0 1 1.98 2.25a.48.48 0 0 0 .417-.245l.183-.326A2.55 2.55 0 0 1 4.805.375zM6 3.563a2.75 2.75 0 1 0 0 5.5 2.75 2.75 0 0 0 0-5.5m0 1.5a1.25 1.25 0 1 1 0 2.5 1.25 1.25 0 0 1 0-2.5"/></svg>
